build/images/page-6/fields/fields-bg-mobile.svg

<svg width="323" height="86" viewBox="0 0 323 86" fill="none" xmlns="http://www.w3.org/2000/svg">
<path d="M123.562 84.71V60.793" stroke="#00A79E" stroke-width="2.03453" stroke-miterlimit="10" stroke-linecap="round" stroke-linejoin="round"/>
<path d="M120.184 53.8366C120.184 57.8512 123.563 61.1049 123.563 61.1049C123.563 61.1049 126.942 57.8512 126.942 53.8366C126.942 49.822 123.563 46.5684 123.563 46.5684C123.563 46.5684 120.184 49.822 120.184 53.8366Z" stroke="#00A79E" stroke-width="2.03453" stroke-miterlimit="10" stroke-linecap="round" stroke-linejoin="round"/>
<path d="M128.079 61.7354C124.791 64.0181 124.044 68.6629 124.044 68.6629C124.044 68.6629 128.634 69.5999 131.928 67.3172C135.217 65.0345 135.964 60.3896 135.964 60.3896C135.964 60.3896 131.368 59.4527 128.079 61.7354Z" stroke="#00A79E" stroke-width="2.03453" stroke-miterlimit="10" stroke-linecap="round" stroke-linejoin="round"/>
<path d="M128.079 72.6773C124.791 74.96 124.044 79.6048 124.044 79.6048C124.044 79.6048 128.634 80.5418 131.928 78.2591C135.217 75.9764 135.964 71.3315 135.964 71.3315C135.964 71.3315 131.368 70.3946 128.079 72.6773Z" stroke="#00A79E" stroke-width="2.03453" stroke-miterlimit="10" stroke-linecap="round" stroke-linejoin="round"/>
<path d="M119.527 61.7354C122.815 64.0181 123.562 68.6629 123.562 68.6629C123.562 68.6629 118.972 69.5999 115.678 67.3172C112.39 65.0345 111.642 60.3896 111.642 60.3896C111.642 60.3896 116.238 59.4527 119.527 61.7354Z" stroke="#00A79E" stroke-width="2.03453" stroke-miterlimit="10" stroke-linecap="round" stroke-linejoin="round"/>
<path d="M119.527 72.6773C122.815 74.96 123.562 79.6048 123.562 79.6048C123.562 79.6048 118.972 80.5418 115.678 78.2591C112.39 75.9764 111.642 71.3315 111.642 71.3315C111.642 71.3315 116.238 70.3946 119.527 72.6773Z" stroke="#00A79E" stroke-width="2.03453" stroke-miterlimit="10" stroke-linecap="round" stroke-linejoin="round"/>
<path d="M44.7939 83.8861V35.7227" stroke="#00A79E" stroke-width="2.03453" stroke-miterlimit="10" stroke-linecap="round" stroke-linejoin="round"/>
<path d="M41.6981 29.3632C41.6981 33.0371 44.7885 36.0125 44.7885 36.0125C44.7885 36.0125 47.8789 33.0371 47.8789 29.3632C47.8789 25.6893 44.7885 22.7139 44.7885 22.7139C44.7885 22.7139 41.6981 25.6893 41.6981 29.3632Z" stroke="#00A79E" stroke-width="2.03453" stroke-miterlimit="10" stroke-linecap="round" stroke-linejoin="round"/>
<path d="M48.9209 36.5861C45.9098 38.6757 45.2306 42.9174 45.2306 42.9174C45.2306 42.9174 49.4303 43.7748 52.4415 41.6852C55.4526 39.5956 56.1318 35.3539 56.1318 35.3539C56.1318 35.3539 51.9321 34.4965 48.9209 36.5861Z" stroke="#00A79E" stroke-width="2.03453" stroke-miterlimit="10" stroke-linecap="round" stroke-linejoin="round"/>
<path d="M48.9209 47.466C45.9098 49.5556 45.2306 53.7973 45.2306 53.7973C45.2306 53.7973 49.4303 54.6547 52.4415 52.5651C55.4526 50.4755 56.1318 46.2338 56.1318 46.2338C56.1318 46.2338 51.9321 45.3763 48.9209 47.466Z" stroke="#00A79E" stroke-width="2.03453" stroke-miterlimit="10" stroke-linecap="round" stroke-linejoin="round"/>
<path d="M41.1036 36.5861C44.1147 38.6757 44.7939 42.9174 44.7939 42.9174C44.7939 42.9174 40.5942 43.7748 37.583 41.6852C34.5719 39.5956 33.8927 35.3539 33.8927 35.3539C33.8927 35.3539 38.0924 34.4965 41.1036 36.5861Z" stroke="#00A79E" stroke-width="2.03453" stroke-miterlimit="10" stroke-linecap="round" stroke-linejoin="round"/>
<path d="M41.1036 47.466C44.1147 49.5556 44.7939 53.7973 44.7939 53.7973C44.7939 53.7973 40.5942 54.6547 37.583 52.5651C34.5719 50.4755 33.8927 46.2338 33.8927 46.2338C33.8927 46.2338 38.0924 45.3763 41.1036 47.466Z" stroke="#00A79E" stroke-width="2.03453" stroke-miterlimit="10" stroke-linecap="round" stroke-linejoin="round"/>
<path d="M48.9209 59.2936C45.9098 61.3832 45.2306 65.6249 45.2306 65.6249C45.2306 65.6249 49.4303 66.4824 52.4415 64.3927C55.4526 62.3031 56.1318 58.0614 56.1318 58.0614C56.1318 58.0614 51.9321 57.204 48.9209 59.2936Z" stroke="#00A79E" stroke-width="2.03453" stroke-miterlimit="10" stroke-linecap="round" stroke-linejoin="round"/>
<path d="M41.1036 59.2936C44.1147 61.3832 44.7939 65.6249 44.7939 65.6249C44.7939 65.6249 40.5942 66.4824 37.583 64.3927C34.5719 62.3031 33.8927 58.0614 33.8927 58.0614C33.8927 58.0614 38.0924 57.204 41.1036 59.2936Z" stroke="#00A79E" stroke-width="2.03453" stroke-miterlimit="10" stroke-linecap="round" stroke-linejoin="round"/>
<g clip-path="url(#clip0)">
<path d="M261.7 28.854V83.734" stroke="#00A99E" stroke-width="2" stroke-miterlimit="10" stroke-linecap="round" stroke-linejoin="round"/>
<path d="M261.3 50.3139C270.302 50.3139 277.6 43.0161 277.6 34.0139C277.6 25.0116 270.302 17.7139 261.3 17.7139C252.298 17.7139 245 25.0116 245 34.0139C245 43.0161 252.298 50.3139 261.3 50.3139Z" stroke="#00A99E" stroke-width="2" stroke-miterlimit="10" stroke-linecap="round" stroke-linejoin="round"/>
<path d="M292.83 58.564V83.684" stroke="#00A99E" stroke-width="2" stroke-miterlimit="10" stroke-linecap="round" stroke-linejoin="round"/>
<path d="M292.64 70.3941C298.422 70.3941 303.11 65.7065 303.11 59.9241C303.11 54.1417 298.422 49.4541 292.64 49.4541C286.858 49.4541 282.17 54.1417 282.17 59.9241C282.17 65.7065 286.858 70.3941 292.64 70.3941Z" stroke="#00A99E" stroke-width="2" stroke-miterlimit="10" stroke-linecap="round" stroke-linejoin="round"/>
</g>
<path d="M88.1924 84.3918V69.6055" stroke="#00A79E" stroke-width="2.03453" stroke-miterlimit="10" stroke-linecap="round" stroke-linejoin="round"/>
<path d="M74.8057 84.0739V74.9375" stroke="#00A79E" stroke-width="2.03453" stroke-miterlimit="10" stroke-linecap="round" stroke-linejoin="round"/>
<path d="M98.1426 84.3917V76.9985" stroke="#00A79E" stroke-width="2.03453" stroke-miterlimit="10" stroke-linecap="round" stroke-linejoin="round"/>
<path d="M15.1826 75.7095V83.8862" stroke="#00A79E" stroke-width="2.03453" stroke-miterlimit="10" stroke-linecap="round" stroke-linejoin="round"/>
<path d="M26.4639 78.5942V83.8864" stroke="#00A79E" stroke-width="2.03453" stroke-miterlimit="10" stroke-linecap="round" stroke-linejoin="round"/>
<path opacity="0.56" d="M168.662 84.1928C167.892 82.5404 167.462 80.7006 167.462 78.7587C167.462 71.6551 173.201 65.8973 180.282 65.8973C182.359 65.8973 184.318 66.397 186.055 67.2771C188.693 60.889 194.958 56.3975 202.277 56.3975C209.114 56.3975 215.029 60.3212 217.933 66.0392C218.555 65.9484 219.189 65.8973 219.834 65.8973C226.915 65.8973 232.654 71.6551 232.654 78.7587C232.654 80.7006 232.224 82.5404 231.454 84.1928H168.662Z" fill="#00A79E"/>
<path d="M2.00001 84.7139L321 84.7139" stroke="#00A79E" stroke-width="2.03453" stroke-miterlimit="10" stroke-linecap="round" stroke-linejoin="round"/>
<path d="M185.36 1.71387V12.4339" stroke="#00A99E" stroke-width="2" stroke-miterlimit="10" stroke-linecap="round" stroke-linejoin="round"/>
<path d="M190.72 7.07373H180" stroke="#00A99E" stroke-width="2" stroke-miterlimit="10" stroke-linecap="round" stroke-linejoin="round"/>
<path d="M85.3604 12.7139V23.4339" stroke="#00A99E" stroke-width="2" stroke-miterlimit="10" stroke-linecap="round" stroke-linejoin="round"/>
<path d="M90.72 18.0737H80" stroke="#00A99E" stroke-width="2" stroke-miterlimit="10" stroke-linecap="round" stroke-linejoin="round"/>
<defs>
<clipPath id="clip0">
<rect width="60.11" height="68.02" fill="white" transform="translate(244 16.7139)"/>
</clipPath>
</defs>
</svg>

<svg width="323" height="86" viewBox="0 0 323 86" fill="none" xmlns="http://www.w3.org/2000/svg"><path d="M123.562 84.71V60.793m-3.378-6.956c0 4.014 3.379 7.268 3.379 7.268s3.379-3.254 3.379-7.268c0-4.015-3.379-7.269-3.379-7.269s-3.379 3.254-3.379 7.269zm7.895 7.898c-3.288 2.283-4.035 6.928-4.035 6.928s4.59.937 7.884-1.346c3.289-2.282 4.036-6.927 4.036-6.927s-4.596-.937-7.885 1.345zm0 10.942c-3.288 2.283-4.035 6.928-4.035 6.928s4.59.937 7.884-1.346c3.289-2.283 4.036-6.927 4.036-6.927s-4.596-.937-7.885 1.345zm-8.552-10.942c3.288 2.283 4.035 6.928 4.035 6.928s-4.59.937-7.884-1.346c-3.288-2.282-4.036-6.927-4.036-6.927s4.596-.937 7.885 1.345zm0 10.942c3.288 2.283 4.035 6.928 4.035 6.928s-4.59.937-7.884-1.346c-3.288-2.283-4.036-6.927-4.036-6.927s4.596-.937 7.885 1.345zM44.794 83.886V35.723m-3.096-6.36c0 3.674 3.09 6.65 3.09 6.65s3.09-2.976 3.09-6.65c0-3.674-3.09-6.65-3.09-6.65s-3.09 2.976-3.09 6.65zm7.222 7.223c-3.01 2.09-3.69 6.331-3.69 6.331s4.2.858 7.212-1.232c3.01-2.09 3.69-6.331 3.69-6.331s-4.2-.858-7.211 1.232zm0 10.88c-3.01 2.09-3.69 6.331-3.69 6.331s4.2.858 7.212-1.232c3.01-2.09 3.69-6.331 3.69-6.331s-4.2-.858-7.211 1.232zm-7.816-10.88c3.01 2.09 3.69 6.331 3.69 6.331s-4.2.858-7.211-1.232-3.69-6.331-3.69-6.331 4.2-.858 7.21 1.232zm0 10.88c3.01 2.09 3.69 6.331 3.69 6.331s-4.2.858-7.211-1.232-3.69-6.331-3.69-6.331 4.2-.858 7.21 1.232zm7.816 11.828c-3.01 2.09-3.69 6.33-3.69 6.33s4.2.858 7.212-1.231c3.01-2.09 3.69-6.332 3.69-6.332s-4.2-.857-7.211 1.233zm-7.816 0c3.01 2.09 3.69 6.33 3.69 6.33s-4.2.858-7.211-1.231c-3.011-2.09-3.69-6.332-3.69-6.332s4.2-.857 7.21 1.233z" stroke="#00A79E" stroke-width="2.035" stroke-miterlimit="10" stroke-linecap="round" stroke-linejoin="round"/><g clip-path="url(#clip0)" stroke="#00A99E" stroke-width="2" stroke-miterlimit="10" stroke-linecap="round" stroke-linejoin="round"><path d="M261.7 28.854v54.88m-.4-33.42c9.002 0 16.3-7.298 16.3-16.3s-7.298-16.3-16.3-16.3-16.3 7.298-16.3 16.3 7.298 16.3 16.3 16.3zm31.53 8.25v25.12m-.19-13.29c5.782 0 10.47-4.688 10.47-10.47 0-5.782-4.688-10.47-10.47-10.47-5.782 0-10.47 4.688-10.47 10.47 0 5.783 4.688 10.47 10.47 10.47z"/></g><path d="M88.192 84.392V69.606M74.806 84.074v-9.136m23.337 9.454v-7.393m-82.96-1.289v8.176m11.281-5.292v5.292" stroke="#00A79E" stroke-width="2.035" stroke-miterlimit="10" stroke-linecap="round" stroke-linejoin="round"/><path opacity=".56" d="M168.662 84.193a12.827 12.827 0 01-1.2-5.434c0-7.104 5.739-12.862 12.82-12.862 2.077 0 4.036.5 5.773 1.38 2.638-6.388 8.903-10.88 16.222-10.88 6.837 0 12.752 3.924 15.656 9.642a13.26 13.26 0 011.901-.142c7.081 0 12.82 5.758 12.82 12.862 0 1.942-.43 3.781-1.2 5.434h-62.792z" fill="#00A79E"/><path d="M2 84.714h319" stroke="#00A79E" stroke-width="2.035" stroke-miterlimit="10" stroke-linecap="round" stroke-linejoin="round"/><path d="M185.36 1.714v10.72m5.36-5.36H180m-94.64 5.64v10.72m5.36-5.36H80" stroke="#00A99E" stroke-width="2" stroke-miterlimit="10" stroke-linecap="round" stroke-linejoin="round"/><defs><clipPath id="clip0"><path fill="#fff" transform="translate(244 16.714)" d="M0 0h60.11v68.02H0z"/></clipPath></defs></svg>
